X:516
T:Kilkenny Jig, The
R:jig
S:Stefan Kayat
Z:id:hn-jig-516
M:6/8
L:1/8
K:Ador
cBA dcB | AEF GAB | cBA dcB | ABA A2B | 
cBA dcB | AEF GAB | cde dBG |1 ~A3 A2B :|2 ~A3 Aef || 
|: ~g3 agf | g2e ede | a2e a2e | a2e e2f | 
~g3 agf | gfe edB | cde dBG |1 ~A3 Aef :|2 ~A3 A2B ||

